svg/gradient.svg

<svg xmlns="http://www.w3.org/2000/svg" viewBox="0 0 24 24"><path d="M11 9h2v2h-2zm-2 2h2v2H9zm4 0h2v2h-2zm2-2h2v2h-2zM7 9h2v2H7zm12-6H5a2 2 0 0 0-2 2v14a2 2 0 0 0 2 2h14a2 2 0 0 0 2-2V5a2 2 0 0 0-2-2M9 18H7v-2h2zm4 0h-2v-2h2zm4 0h-2v-2h2zm2-7h-2v2h2v2h-2v-2h-2v2h-2v-2h-2v2H9v-2H7v2H5v-2h2v-2H5V5h14z"/></svg>

<?xml version="1.0" encoding="UTF-8"?><!DOCTYPE svg PUBLIC "-//W3C//DTD SVG 1.1//EN" "http://www.w3.org/Graphics/SVG/1.1/DTD/svg11.dtd"><svg xmlns="http://www.w3.org/2000/svg" xmlns:xlink="http://www.w3.org/1999/xlink" version="1.1" id="mdi-gradient" width="24" height="24" viewBox="0 0 24 24"><path d="M11,9H13V11H11V9M9,11H11V13H9V11M13,11H15V13H13V11M15,9H17V11H15V9M7,9H9V11H7V9M19,3H5A2,2 0 0,0 3,5V19A2,2 0 0,0 5,21H19A2,2 0 0,0 21,19V5A2,2 0 0,0 19,3M9,18H7V16H9V18M13,18H11V16H13V18M17,18H15V16H17V18M19,11H17V13H19V15H17V13H15V15H13V13H11V15H9V13H7V15H5V13H7V11H5V5H19V11Z" /></svg>
